svg/material-icons/rocket/materialiconsround/20px.svg

<svg xmlns="http://www.w3.org/2000/svg" width="20" height="20" viewBox="0 0 20 20"><path d="M8.32 16c-.21 0-.39-.12-.47-.32-.32-.84-1.1-3.11-1.1-5.18 0-4.88 1.98-7.04 2.95-7.79.18-.14.42-.14.6 0 .97.75 2.95 2.91 2.95 7.79 0 2.08-.78 4.35-1.1 5.18-.08.2-.26.32-.47.32H8.32zm3.18-7c0-.82-.67-1.5-1.5-1.5-.82 0-1.5.68-1.5 1.5 0 .83.68 1.5 1.5 1.5.83 0 1.5-.67 1.5-1.5zm-6.92 2.8c-.37.28-.58.72-.58 1.18v4.21c0 .37.39.61.72.45l2.37-1.18c-.5-1.18-1.24-3.4-1.33-5.57l-1.18.91zm10.84 0c.37.28.58.72.58 1.18v4.21c0 .37-.39.61-.72.45l-2.37-1.18c.5-1.18 1.24-3.4 1.33-5.57l1.18.91z"/></svg>

<svg xmlns="http://www.w3.org/2000/svg" enable-background="new 0 0 20 20" height="20" viewBox="0 0 20 20" width="20"><g><rect fill="none" height="20" width="20"/></g><g><path d="M8.32,16c-0.21,0-0.39-0.12-0.47-0.32c-0.32-0.84-1.1-3.11-1.1-5.18c0-4.88,1.98-7.04,2.95-7.79c0.18-0.14,0.42-0.14,0.6,0 c0.97,0.75,2.95,2.91,2.95,7.79c0,2.08-0.78,4.35-1.1,5.18C12.07,15.88,11.89,16,11.68,16H8.32z M11.5,9c0-0.82-0.67-1.5-1.5-1.5 C9.18,7.5,8.5,8.18,8.5,9c0,0.83,0.68,1.5,1.5,1.5C10.83,10.5,11.5,9.83,11.5,9z M4.58,11.8C4.21,12.08,4,12.52,4,12.98v4.21 c0,0.37,0.39,0.61,0.72,0.45l2.37-1.18c-0.5-1.18-1.24-3.4-1.33-5.57L4.58,11.8z M15.42,11.8c0.37,0.28,0.58,0.72,0.58,1.18v4.21 c0,0.37-0.39,0.61-0.72,0.45l-2.37-1.18c0.5-1.18,1.24-3.4,1.33-5.57L15.42,11.8z"/></g></svg>
